X:106
T:Maggie Scollard's Polka
B:Terry "Cuz" Teahan "Sliabh Luachra on Parade" 1980
Z:Patrick Cavanagh
M:2/4
L:1/8
R:Polka
K:D
| Ad cB | AF DE/F/ | GE BA/G/ | FA D2 | 
Ad cB | AF DE/F/ | GE BA | D2 D2 :| 
| Ad fa | ge ed | c/B/A Bc | ed cB | 
Ad fa | ge ed | c/B/A GE | D2 D2 :|| 

